images/classroom.svg

<?xml version="1.0" encoding="UTF-8"?>
<svg id="Layer_1" xmlns="http://www.w3.org/2000/svg" version="1.1" viewBox="0 0 123.9 127.8">
  <!-- Generator: Adobe Illustrator 30.3.0, SVG Export Plug-In . SVG Version: 2.1.3 Build 182)  -->
  <defs>
    <style>
      .st0 {
        fill: #ff6c00;
      }
    </style>
  </defs>
  <path class="st0" d="M15.2,17.9h-6.6c-3.1,0-5.7-2.6-5.7-5.7v-6.5C3,2.6,5.5,0,8.6,0h6.6C18.3,0,20.9,2.6,20.9,5.7v6.6c0,3.1-2.6,5.6-5.7,5.6Z"/>
  <rect class="st0" y="22" width="123.9" height="33.8"/>
  <path class="st0" d="M47.7,17.9h-6.6c-3.1,0-5.7-2.6-5.7-5.7v-6.5C35.4,2.6,38,0,41.1,0h6.6C50.8,0,53.4,2.6,53.4,5.7v6.6c0,3.1-2.6,5.6-5.7,5.6Z"/>
  <path class="st0" d="M80.1,17.9h-6.6c-3.1,0-5.7-2.6-5.7-5.7v-6.5C67.8,2.6,70.4,0,73.5,0h6.6C83.2,0,85.8,2.6,85.8,5.7v6.6c0,3.1-2.6,5.6-5.7,5.6Z"/>
  <path class="st0" d="M112.6,17.9h-6.6c-3.1,0-5.7-2.6-5.7-5.7v-6.5C100.3,2.6,102.9,0,106,0h6.6C115.7,0,118.3,2.6,118.3,5.7v6.6c0,3.1-2.6,5.6-5.7,5.6Z"/>
  <path class="st0" d="M15.2,89.9h-6.6c-3.1,0-5.7-2.6-5.7-5.7v-6.6c0-3,2.6-5.6,5.7-5.6h6.6c3.1,0,5.7,2.6,5.7,5.7v6.6c0,3.1-2.6,5.6-5.7,5.6Z"/>
  <rect class="st0" y="94" width="123.9" height="33.8"/>
  <path class="st0" d="M47.7,89.9h-6.6c-3.1,0-5.7-2.6-5.7-5.7v-6.6c0-3.1,2.6-5.7,5.7-5.7h6.6c3.1,0,5.7,2.6,5.7,5.7v6.6c-.1,3.2-2.6,5.7-5.7,5.7Z"/>
  <path class="st0" d="M80.1,89.9h-6.6c-3.1,0-5.7-2.6-5.7-5.7v-6.6c0-3.1,2.6-5.7,5.7-5.7h6.6c3.1,0,5.7,2.6,5.7,5.7v6.6c0,3.2-2.6,5.7-5.7,5.7Z"/>
  <path class="st0" d="M112.6,89.9h-6.6c-3.1,0-5.7-2.6-5.7-5.7v-6.6c0-3.1,2.6-5.7,5.7-5.7h6.6c3.1,0,5.7,2.6,5.7,5.7v6.6c0,3.2-2.6,5.7-5.7,5.7Z"/>
</svg>

<?xml version="1.0" encoding="utf-8"?>
<!-- Generator: Adobe Illustrator 20.0.0, SVG Export Plug-In . SVG Version: 6.00 Build 0)  -->
<svg version="1.1" id="Layer_1" xmlns="http://www.w3.org/2000/svg" xmlns:xlink="http://www.w3.org/1999/xlink" x="0px" y="0px"
	 viewBox="0 0 123.9 127.8" style="enable-background:new 0 0 123.9 127.8;" xml:space="preserve">
<style type="text/css">
	.st0{fill:#B8B092;}
</style>
<path class="st0" d="M15.2,17.9H8.6c-3.1,0-5.7-2.6-5.7-5.7V5.7C3,2.6,5.5,0,8.6,0h6.6c3.1,0,5.7,2.6,5.7,5.7v6.6
	C20.9,15.4,18.3,17.9,15.2,17.9z"/>
<rect y="22" class="st0" width="123.9" height="33.8"/>
<path class="st0" d="M47.7,17.9h-6.6c-3.1,0-5.7-2.6-5.7-5.7V5.7C35.4,2.6,38,0,41.1,0h6.6c3.1,0,5.7,2.6,5.7,5.7v6.6
	C53.3,15.4,50.8,17.9,47.7,17.9z"/>
<path class="st0" d="M80.1,17.9h-6.6c-3.1,0-5.7-2.6-5.7-5.7V5.7c0-3.1,2.6-5.7,5.7-5.7h6.6c3.1,0,5.7,2.6,5.7,5.7v6.6
	C85.8,15.4,83.2,17.9,80.1,17.9z"/>
<path class="st0" d="M112.6,17.9H106c-3.1,0-5.7-2.6-5.7-5.7V5.7c0-3.1,2.6-5.7,5.7-5.7h6.6c3.1,0,5.7,2.6,5.7,5.7v6.6
	C118.3,15.4,115.7,17.9,112.6,17.9z"/>
<path class="st0" d="M15.2,89.9H8.6c-3.1,0-5.7-2.6-5.7-5.7v-6.6C3,74.6,5.5,72,8.6,72h6.6c3.1,0,5.7,2.6,5.7,5.7v6.6
	C20.9,87.4,18.3,89.9,15.2,89.9z"/>
<rect y="94" class="st0" width="123.9" height="33.8"/>
<path class="st0" d="M47.7,89.9h-6.6c-3.1,0-5.7-2.6-5.7-5.7v-6.6c0-3.1,2.6-5.7,5.7-5.7h6.6c3.1,0,5.7,2.6,5.7,5.7v6.6
	C53.3,87.4,50.8,89.9,47.7,89.9z"/>
<path class="st0" d="M80.1,89.9h-6.6c-3.1,0-5.7-2.6-5.7-5.7v-6.6c0-3.1,2.6-5.7,5.7-5.7h6.6c3.1,0,5.7,2.6,5.7,5.7v6.6
	C85.8,87.4,83.2,89.9,80.1,89.9z"/>
<path class="st0" d="M112.6,89.9H106c-3.1,0-5.7-2.6-5.7-5.7v-6.6c0-3.1,2.6-5.7,5.7-5.7h6.6c3.1,0,5.7,2.6,5.7,5.7v6.6
	C118.3,87.4,115.7,89.9,112.6,89.9z"/>
</svg>
